X:1
T:Bidford Town Morris
M:6/8
T:Morris On
C:
S:Bacon (JG (CJS MSS ex Ferris))
N:
A:Bidford
O:
R:Jig
%P:A.(AB)$^{\infty}$
P:A.(AB)8
K:C
I:speed 300
P:A
|:\
   cBc d2 B | cBA GAB  | c2 G AGF | E3 C3 :|
P:B
|: DEF E2 C | DEF E2 C | c2 G AGF | E3 C3 :|
